src/assets/icons/location.svg

<svg width="20" height="21" viewBox="0 0 20 21" fill="none" xmlns="http://www.w3.org/2000/svg">
<path fill-rule="evenodd" clip-rule="evenodd" d="M9.61646 19.1259C9.64163 19.1405 9.66141 19.1517 9.67542 19.1596L9.69869 19.1726C9.88441 19.2745 10.1148 19.2738 10.3007 19.1729L10.3246 19.1596C10.3386 19.1517 10.3584 19.1405 10.3835 19.1259C10.4339 19.0967 10.5058 19.0542 10.5963 18.9985C10.7771 18.8872 11.0323 18.723 11.3372 18.5076C11.9459 18.0776 12.7581 17.4395 13.5721 16.6061C15.1922 14.9474 16.875 12.4551 16.875 9.25C16.875 5.45304 13.797 2.375 10 2.375C6.20304 2.375 3.125 5.45304 3.125 9.25C3.125 12.4551 4.80777 14.9474 6.42788 16.6061C7.24188 17.4395 8.05409 18.0776 8.66282 18.5076C8.96771 18.723 9.22295 18.8872 9.40375 18.9985C9.49419 19.0542 9.56612 19.0967 9.61646 19.1259ZM10 11.75C11.3807 11.75 12.5 10.6307 12.5 9.25C12.5 7.86929 11.3807 6.75 10 6.75C8.61929 6.75 7.5 7.86929 7.5 9.25C7.5 10.6307 8.61929 11.75 10 11.75Z" fill="#A685FA"/>
</svg>

<svg xmlns="http://www.w3.org/2000/svg" width="20" height="21" fill="none" xmlns:v="https://vecta.io/nano"><path fill-rule="evenodd" d="M9.616 19.126l.059.034.023.013c.186.102.416.101.602 0l.024-.013.059-.034.213-.127.741-.491a16.32 16.32 0 0 0 2.235-1.901c1.62-1.659 3.303-4.151 3.303-7.356 0-3.797-3.078-6.875-6.875-6.875S3.125 5.453 3.125 9.25c0 3.205 1.683 5.697 3.303 7.356a16.32 16.32 0 0 0 2.235 1.901l.741.491.213.127zM10 11.75a2.5 2.5 0 1 0 0-5 2.5 2.5 0 1 0 0 5z" fill="#a685fa"/></svg>
